svgs/sharp-thin/note-medical.svg

<svg xmlns="http://www.w3.org/2000/svg" viewBox="0 0 448 512"><!--! Font Awesome Pro 6.6.0 by @fontawesome - https://fontawesome.com License - https://fontawesome.com/license (Commercial License) Copyright 2024 Fonticons, Inc. --><path d="M432 48l0 272-128 0-16 0 0 16 0 128L16 464 16 48l416 0zm-6.6 288L304 457.4 304 336l121.4 0zM16 480l272 0 16 0L448 336l0-16 0-272 0-16-16 0L16 32 0 32 0 48 0 464l0 16 16 0zM192 112l-8 0 0 8 0 64-64 0-8 0 0 8 0 64 0 8 8 0 64 0 0 64 0 8 8 0 64 0 8 0 0-8 0-64 64 0 8 0 0-8 0-64 0-8-8 0-64 0 0-64 0-8-8 0-64 0zm8 80l0-64 48 0 0 64 0 8 8 0 64 0 0 48-64 0-8 0 0 8 0 64-48 0 0-64 0-8-8 0-64 0 0-48 64 0 8 0 0-8z"/></svg>

<svg xmlns="http://www.w3.org/2000/svg" viewBox="0 0 448 512"><!--! Font Awesome Pro 6.5.2 by @fontawesome - https://fontawesome.com License - https://fontawesome.com/license (Commercial License) Copyright 2024 Fonticons, Inc. --><path d="M432 48V320H304 288v16V464H16V48H432zm-6.6 288L304 457.4V336H425.4zM16 480H288h16L448 336V320 48 32H432 16 0V48 464v16H16zM192 112h-8v8 64H120h-8v8 64 8h8 64v64 8h8 64 8v-8V264h64 8v-8V192v-8h-8H264V120v-8h-8H192zm8 80V128h48v64 8h8 64v48H256h-8v8 64H200V256v-8h-8H128V200h64 8v-8z"/></svg>
